svgs/light/square-arrow-right.svg

<svg xmlns="http://www.w3.org/2000/svg" viewBox="0 0 448 512"><!-- Font Awesome Pro 6.0.0-alpha2 by @fontawesome - https://fontawesome.com License - https://fontawesome.com/license (Commercial License) --><path d="M251.312 148.688C245.062 142.438 234.937 142.438 228.688 148.688S222.438 165.063 228.688 171.312L297.375 240H112C103.156 240 96 247.156 96 256S103.156 272 112 272H297.375L228.688 340.688C222.438 346.938 222.438 357.063 228.688 363.312S245.063 369.562 251.312 363.312L347.312 267.312C350.438 264.188 352 260.094 352 256S350.438 247.812 347.312 244.688L251.312 148.688ZM384 32H64C28.654 32 0 60.654 0 96V416C0 451.346 28.654 480 64 480H384C419.346 480 448 451.346 448 416V96C448 60.654 419.346 32 384 32ZM416 416C416 433.645 401.645 448 384 448H64C46.355 448 32 433.645 32 416V96C32 78.355 46.355 64 64 64H384C401.645 64 416 78.355 416 96V416Z"/></svg>

<svg xmlns="http://www.w3.org/2000/svg" viewBox="0 0 448 512"><!--! Font Awesome Pro 6.3.0 by @fontawesome - https://fontawesome.com License - https://fontawesome.com/license (Commercial License) Copyright 2023 Fonticons, Inc. --><path d="M251.3 148.7c-6.25-6.25-16.38-6.25-22.62 0s-6.25 16.38 0 22.62L297.4 240H112C103.2 240 96 247.2 96 255.1C96 264.8 103.2 272 112 272h185.4l-68.69 68.69c-6.25 6.25-6.25 16.38 0 22.62s16.38 6.25 22.62 0l96-96C350.4 264.2 352 260.1 352 255.1s-1.562-8.184-4.688-11.31L251.3 148.7zM384 32H64C28.65 32 0 60.65 0 96v320c0 35.35 28.65 64 64 64h320c35.35 0 64-28.65 64-64V96C448 60.65 419.3 32 384 32zM416 416c0 17.64-14.36 32-32 32H64c-17.64 0-32-14.36-32-32V96c0-17.64 14.36-32 32-32h320c17.64 0 32 14.36 32 32V416z"/></svg>
